X: 216
T:Denis Murphy's Polka
N: page 71
N: heptatonic
N: matches 108
M:2/4
E:10
R:polka
K:D
Q:1/4=60
"D"fgfe d3B|A2D2 F2A2|"G7"G2E2 e3d|c2B2 B2A2|\
"D"fgfe d3B|A2D2 F2A2|"G7"G2E2 e3f|"D"e2d2  d3:|
B|"D"A2f2 fef2|A2g2 gfg2|A2f2 fef2|"G7"efed B2A2 |"D"A2f2 fef2|A2g2 g3a|"G7"b2a2 g2c2|"D"e2d2 d3:|





This abc file is used to generate the MIDI files and pdf file for volume 2
of the music collection used by the Ottawa Slow (Celtic) Jam.
The file is derived from 
http://www.ceolas.org/pub/tunes/abc.tunes/sessionTunes.abc
see http://www.ceolas.org/tunes/ under the heading "Collections".
John Walsh is the originator of this collection.

I have added guitar chord accompaniment to many of the tunes and fixed
some minor transition problems with repeats. I have also maintained
the original format and page numbering. With a few exceptions there
are no tempo markings. (They were introduced for a couple of tunes
to ensure that the output MIDI file would play slowly. You can
remove these tempo indications by searching for 1/4=60 and
deleting that line.) Since these changes are fairly minor, you
can still continue using the first version 1.1 which was
typeset by Michael Lohr in 1994.

To generate the MIDI files you need the abcMIDI package and preferably the
program runabc, which you can find on my web site
http://ifdo.ca/~seymour/runabc/top.html
or on sourceforge
http://sourceforge.net/projects/abc/files/

The pdf file was generated using Jef Moine's program abcm2ps which
can be found on his web page
http://moinejf.free.fr/

The program produces a PostScript file called Out.ps which can
be viewed either Ghostview, Acrobat, or Sumatra PDF. The latter
program was used to convert the PostScript file into a PDF file.





%%pageheight  11.00in
%%pagewidth    8.50in
%%leftmargin   0.35in
%%rightmargin  0.35in
%%topmargin    0.35in
%%botmargin    0.25in
%%staffwidth   7.80in

%%topspace   0in
%%titlespace 0in

%withxrefs yes  % print the X: number in the title

%%gchordfont Helvetica 14
%%titlefont Times-Roman-Bold 16
%%titlecaps
%%footerfont Helvetica 10
%%footer "Ottawa Celtic Slow Jam - John Walsh Book 2 volume 3 - 2013/07 edition

%%headerfont Helvetica-Bold 12
%%header  $P 

%make the notes a bit smaller
%%scale 0.78

%%vskip 3in

%%textfont Helvetica 20
%%textspace 20

%%center Ottawa Celtic Slow Jam
%%vskip 2in
%%center Tune Book
%%vskip 1in
%%center Volume III
%%textfont Helvetica 16
%%center Version 1.4
%%center updated July 08, 2012

%%newpage
%%textfont Helvetica 18
%%center *************************** INTRODUCTION ****************************
%%textoption 1
%%begintext 
     This file contains a number of well-known Irish jigs, reels,
hornpipes, and polkas, written out in Chris Walshaw's abc notation. To
print them out, first process the file with the program abc2mtex,
which will convert it to a Music TeX file, and then run that file
through Music TeX. See the abc2mtex documentation for an explanation
of the notation. Both abc2mtex and Music TeX are available for anonymous
ftp on the archive celtic.stanford.edu. 

     Like any folk music, these tunes change with time. There may be
quite different versions of some of them floating around. I have tried
to give settings which are close to what I hear played. A few tunes
are transcribed from particular performances, one or two others are
taken from books--both of these are indicated on the tune notes--but the
majority are set about as I have heard them played. 

     Quite a lot is left to the player. The settings are basic: the only
decorations indicated explicitly are rolls, triplets and quadruplets;
first and second endings are only written out when they are
substantially different. Apart from the fact that most players don't
need to be told when and where to put in a grace note, a lot of gracings
are done differently on different instruments: carefully-written-out
fiddle decorations can be a distraction to someone playing the tune on a
flute. Since the decorations are only indicated generically, not in
detail, the tunes should be playable on any of the usual instruments.
(Well..I have only checked them out on the whistle and pipes.) If some
of the details of the settings turn out to be awkward on a particular
instrument, just adapt the tune to fit--most players automatically
modify a tune slightly in order to make it fit the fingers, or to take
advantage of some particular effect on their instrument. (There are a
couple of obvious cases, where, for instance, the range is beyond the
range of the pipes, whistle, and flute. It is up to the individual to
modify the setting--i.e. to fake it--if they want to play it.) 

     One thing bears noting: I have written the hornpipes out in
straight eighth notes, but they are usually played with alternating
dotted and cut notes: i.e. what I have written as "eighth, eighth,
eighth, eighth" is often played more like "dotted eighth, sixteenth,
dotted eighth, sixteenth." The amount of emphasis is a matter of
style, so some books write out the dotted notes, others don't. I opted
for the easiest path, and wrote them out in straight eighths. 
 

	Thanks to Dan Beimborn and Seamus Keleher for suggesting
many of these tunes. (Cryptic notations such as Z:Boston just indicate
that the tune is commonly played in sessions there.  But in fact, most of
these tunes will be played in sessions all over.)

     I make apologies in advance for the typos which have surely
escaped my proof-reading. Please let me know about any obvious errors,
or any settings which seem too much at variance with what is played in
your own area. 

     When I knew the composer of a tune, I indicated it, but I only knew
the composers of a couple of the tunes. If any others have known
composers, I would appreciate hearing about it. As far as I know, the
remainder of the tunes are public domain. The copyright below does not
cover the tunes themselves, just the arrangements and the code in this
file. 
	
     Tune 35 is from Bulmer and Sharpley' book; tune 15 from Ceol
Rince na hEireann, tune 49 from Leo Rowsome's tutor, tune 4 from
O'Neill's. The remainder of this file is copyright by John B. Walsh,
January, 1994. It may be freely used, copied and distributed, as long as
this notice is included with the copy. It may not be sold, or used to
make hard copies for sale, without express permission of the author. 
%%endtext

%%%leftmargin  0in
%%%rightmargin 0in
%%%EPS index1.eps
%%leftmargin  0.35in
%%rightmargin 0.35in

%%stretchstaff yes
%% printtempo 0 % ignore tempo markings


%%%%%%%%%%%%%%%%%%%%%%%%%%%%%%%%%%%%%%%%%%%%%%%%%%%%%%%%%%%%%%%%%%%%%
%%%%%%%%%%%%%%%%%%%%%%%%%% SESSION TUNES II %%%%%%%%%%%%%%%%%%%%%%%%%
%%%%%%%%%%%%%%%%%%%%%%%%%%%%%%%%%%%%%%%%%%%%%%%%%%%%%%%%%%%%%%%%%%%%%

		  	Compiled and deranged by John B. Walsh
					

%%%%%%%%%%%%%%%%%%%%%%%%%%%%%%%%%%%%%%%%%%%%%%%%%%%%%%%%%%%%%%%%%%%%%
%%%%%%%%%%%%%%%%%%%%%%%%%% INTRODUCTION %%%%%%%%%%%%%%%%%%%%%%%%%%%%%
%%%%%%%%%%%%%%%%%%%%%%%%%%%%%%%%%%%%%%%%%%%%%%%%%%%%%%%%%%%%%%%%%%%%%

     This file contains a number of well-known Irish jigs, reels,
hornpipes, and polkas, written out in abc notation. All of them (with
one or two possible exceptions that I slipped in bacause I liked them)
are reasonably common session tunes. The notation is straightforward,
and can be read directly with a little practice, or it can be
converted to standard music notation with Chris Walshaw's program
abc2mtex. The notation is explained in the documentation for the program
abc2mtex, and can be found on the ceolas archive at celtic.stanford.edu.

     There may be quite different versions of some of the tunes floating
around. A few tunes are transcribed from particular performances, but in general I have tried to give settings which are close to what I hear
played in sessions.  

     Quite a lot is left to the player. The settings are basic: the only
decorations indicated explicitly are rolls, triplets and quadruplets;
first and second endings are only written out when they are
substantially different.

      There are notes on the tunes in an accompanying file,
sessionTunesII.txt. I apologize in advance for the many typos which have
surely escaped my proof-reading. Please let me know about any obvious
errors in either the tunes or the notes, or any settings which seem
too much at variance with what is played in your own area. I'd also be
interested in any more lore about the tunes.

     When I knew the composer of a tune, I indicated it, but I only know
the composers of a couple of them. If any others have known composers, I
would appreciate hearing about it. As far as I know, all the the tunes
are in the public domain.

     To print them out, first process this file with the program
abc2mtex, which will convert it to a Music TeX file, and then run that
file through Music TeX. See the abc2mtex documentation to see how to
do this. Both abc2mtex and Music TeX are available for anonymous ftp
on the ceolas archive at celtic.stanford.edu.

     Some technicalities: the tunes are set-up for printing out at eight
bars per line (saves paper) with Music TeX's 17 point music font, with
the music right-justified. The file header.tex, where abc2mtex looks
up the parameters, has entries for the page length, width, margins and
fonts: 


				% page length
				\vsize=9.5in
				% page width
				\hsize=7.7in
				% top margin
				\voffset=-0.25in
				% left margin
				\hoffset=-0.75in
				\musicsize=17\relax

     This works on 8 1/2 x 11 paper, but may not be good for A4, which
is narrower. The output might look better at 4 bars per line with a
larger font, (\musicsize=20) but to make it look nice one has to do
two things: first, replace the backslashes by asterisks at the end of
each 4-bar line (this causes the program to right-justify the lines) and
then fool around with the "E:" field, which governs the note spacing.
Increase the number if the lines are too cramped, (e.g. replace E:7 by
E:10) decrease it if they overflow. The right-justification of lines
looks good if the note spacing is right, but it can look awful if the
note spacing is wrong. To turn it off, just remove all the asterisks
from the end of the lines with a global search-and-replace. 


	Enjoy!
	John Walsh
	walsh@math.ubc.ca
	May 11, 1995
 
%%%%%%%%%%%%%%%%%%%%%%%%%%%%%%%%%%%%%%%%%%%%%%%%%%%%%%%%%%%%%%%%%%%%%
%%%%%%%%%%%%%%%%%%%%%%%%%%%  JIGS   %%%%%%%%%%%%%%%%%%%%%%%%%%%%%%%%%
%%%%%%%%%%%%%%%%%%%%%%%%%%%%%%%%%%%%%%%%%%%%%%%%%%%%%%%%%%%%%%%%%%%%%

%%scale 0.65
%%newpage 73

